assets/svg/logistics.svg

<?xml version="1.0" encoding="UTF-8"?>
<svg width="1000px" height="1000px" viewBox="0 0 1000 1000" version="1.1" xmlns="http://www.w3.org/2000/svg" xmlns:xlink="http://www.w3.org/1999/xlink">
    <!-- Generator: sketchtool 52.4 (67378) - http://www.bohemiancoding.com/sketch -->
    <title>logistics</title>
    <desc>Created with sketchtool.</desc>
    <g id="新版图标" stroke="none" stroke-width="1" fill="none" fill-rule="evenodd">
        <g id="logistics" fill="#323233" fill-rule="nonzero">
            <g id="圆角-待收货">
                <path d="M111.111111,388.888889 C95.7698681,388.888889 83.3333333,376.452354 83.3333333,361.111111 C83.3333333,345.769868 95.7698681,333.333333 111.111111,333.333333 L444.444444,333.333333 C459.785687,333.333333 472.222222,345.769868 472.222222,361.111111 C472.222222,376.452354 459.785687,388.888889 444.444444,388.888889 L111.111111,388.888889 Z M111.111111,555.555556 C95.7698681,555.555556 83.3333333,543.119021 83.3333333,527.777778 C83.3333333,512.436535 95.7698681,500 111.111111,500 L444.444444,500 C459.785687,500 472.222222,512.436535 472.222222,527.777778 C472.222222,543.119021 459.785687,555.555556 444.444444,555.555556 L111.111111,555.555556 Z M666.666667,777.777778 L888.888889,777.777778 L888.888889,484.486623 L729.623885,431.398289 L685.609604,211.326881 C680.416002,185.35887 657.615179,166.666667 631.1329,166.666667 L166.666667,166.666667 L166.666667,111.111111 L631.1329,111.111111 C684.097457,111.111111 729.699104,148.495519 740.086308,200.431541 L777.777778,388.888889 L906.457098,431.781996 C929.142773,439.343887 944.444444,460.573823 944.444444,484.486623 L944.444444,777.777778 C944.444444,808.460264 919.571375,833.333333 888.888889,833.333333 L666.666667,833.333333 L666.666667,777.777778 Z M166.666667,166.666667 C151.325424,166.666667 138.888889,154.230132 138.888889,138.888889 C138.888889,123.547646 151.325424,111.111111 166.666667,111.111111 L631.1329,111.111111 C684.097457,111.111111 729.699104,148.495519 740.086308,200.431541 L777.777778,388.888889 L906.457098,431.781996 C929.142773,439.343887 944.444444,460.573823 944.444444,484.486623 L944.444444,777.777778 C944.444444,808.460264 919.571375,833.333333 888.888889,833.333333 L666.666667,833.333333 L666.666667,777.777778 L888.888889,777.777778 L888.888889,484.486623 L729.623885,431.398289 L685.609604,211.326881 C680.416002,185.35887 657.615179,166.666667 631.1329,166.666667 L166.666667,166.666667 Z" id="Combined-Shape"></path>
                <path d="M611.111111,861.111111 C641.793597,861.111111 666.666667,836.238042 666.666667,805.555556 C666.666667,774.873069 641.793597,750 611.111111,750 C580.428625,750 555.555556,774.873069 555.555556,805.555556 C555.555556,836.238042 580.428625,861.111111 611.111111,861.111111 Z M611.111111,916.666667 C549.746139,916.666667 500,866.920528 500,805.555556 C500,744.190583 549.746139,694.444444 611.111111,694.444444 C672.476083,694.444444 722.222222,744.190583 722.222222,805.555556 C722.222222,866.920528 672.476083,916.666667 611.111111,916.666667 Z" id="Oval-4-Copy-3"></path>
                <path d="M222.222222,861.111111 C252.904708,861.111111 277.777778,836.238042 277.777778,805.555556 C277.777778,774.873069 252.904708,750 222.222222,750 C191.539736,750 166.666667,774.873069 166.666667,805.555556 C166.666667,836.238042 191.539736,861.111111 222.222222,861.111111 Z M222.222222,916.666667 C160.85725,916.666667 111.111111,866.920528 111.111111,805.555556 C111.111111,744.190583 160.85725,694.444444 222.222222,694.444444 C283.587194,694.444444 333.333333,744.190583 333.333333,805.555556 C333.333333,866.920528 283.587194,916.666667 222.222222,916.666667 Z" id="Oval-4-Copy-2"></path>
                <polygon id="Line-2" points="277.777778 833.333333 277.777778 777.777778 555.555556 777.777778 555.555556 833.333333"></polygon>
            </g>
        </g>
    </g>
</svg>

<svg width="1000" height="1000" xmlns="http://www.w3.org/2000/svg"><g fill="#323233" fill-rule="nonzero"><path d="M111.111 388.889c-15.341 0-27.778-12.437-27.778-27.778s12.437-27.778 27.778-27.778h333.333c15.342 0 27.778 12.437 27.778 27.778s-12.436 27.778-27.778 27.778H111.111zm0 166.667c-15.341 0-27.778-12.437-27.778-27.778S95.77 500 111.111 500h333.333c15.342 0 27.778 12.437 27.778 27.778s-12.436 27.778-27.778 27.778H111.111zm555.556 222.222h222.222V484.487l-159.265-53.089-44.014-220.071c-5.194-25.968-27.995-44.66-54.477-44.66H166.667V111.11h464.466c52.964 0 98.566 37.385 108.953 89.32l37.692 188.458 128.68 42.893c22.685 7.562 37.986 28.792 37.986 52.705v293.29c0 30.683-24.873 55.556-55.555 55.556H666.667v-55.555zm-500-611.111c-15.342 0-27.778-12.437-27.778-27.778s12.436-27.778 27.778-27.778h464.466c52.964 0 98.566 37.385 108.953 89.32l37.692 188.458 128.68 42.893c22.685 7.562 37.986 28.792 37.986 52.705v293.29c0 30.683-24.873 55.556-55.555 55.556H666.667v-55.555h222.222V484.487l-159.265-53.089-44.014-220.071c-5.194-25.968-27.995-44.66-54.477-44.66H166.667z"/><path d="M611.111 861.111c30.683 0 55.556-24.873 55.556-55.555 0-30.683-24.873-55.556-55.556-55.556-30.682 0-55.555 24.873-55.555 55.556 0 30.682 24.873 55.555 55.555 55.555zm0 55.556C549.746 916.667 500 866.92 500 805.556s49.746-111.112 111.111-111.112 111.111 49.747 111.111 111.112c0 61.365-49.746 111.11-111.11 111.11zM222.222 861.111c30.683 0 55.556-24.873 55.556-55.555 0-30.683-24.873-55.556-55.556-55.556-30.682 0-55.555 24.873-55.555 55.556 0 30.682 24.873 55.555 55.555 55.555zm0 55.556c-61.365 0-111.11-49.746-111.11-111.111s49.745-111.112 111.11-111.112 111.111 49.747 111.111 111.112c0 61.365-49.746 111.11-111.11 111.11z"/><path d="M277.778 833.333v-55.555h277.778v55.555z"/></g></svg>
